X:1
T:[ID 2-18a]
T:[ID 2-18a]
T:Bezeichnung standardisiert: Menuet schwarz M\"ausel; Menuet In dieser Quelle auch als: Menuet schwarz M\"ausel \"Ahnlich in anderer Quelle: No: 58 (3. Nummerierung) - H. N. Philipp ab 1785 (Anm. S. Wascher);
T:Urheber unbekannt Datum in der hier transkribierten schriftlichen Quelle: 1767
C:Urheber unbekannt
C:Datum in der hier transkribierten schriftlichen Quelle: 1767
L:1/8
M:3/4
K:G
V:1 treble 
V:1
 GA B2 c2 | B4 A2 | GB d2 c2 | BABc B2 | GA B2 c2 | B4 A2 | GBdBcA | G4 G,2 :: A2 B2 c2 | %9
 B2 c2 d2 | g2 d2 c2 | BcdB G2 | GA B2 c2 | B4 A2 | GBdBcA | G4 G,2 :| %16

